src/images_karasa_jaga_svg/cmd/sc_starshapes.star4.svg

<svg height="16" viewBox="0 0 16 16" width="16" xmlns="http://www.w3.org/2000/svg" xmlns:xlink="http://www.w3.org/1999/xlink"><linearGradient id="a" gradientUnits="userSpaceOnUse" x1=".001014" x2="127.99898" y1="64.001122" y2="64.001122"><stop offset="0" stop-color="#7c9fcf"/><stop offset=".5" stop-color="#7c9ece"/><stop offset="1" stop-color="#7b9dcf"/></linearGradient><linearGradient id="b" gradientUnits="userSpaceOnUse" x1="64" x2="64" y1="128" y2="0"><stop offset="0" stop-color="#fff"/><stop offset=".59375" stop-color="#fff"/><stop offset=".84375" stop-color="#f1f1f1"/><stop offset=".90625" stop-color="#eaeaea"/><stop offset="1" stop-color="#dfdfdf"/></linearGradient><g transform="matrix(.125 0 0 .125 0 -.000141)"><path d="m64.203125.00585938a8.0008 8.0008 0 0 0 -7.964844 6.05468752l-10.035156 40.1425781-40.1425781 10.035156a8.0008 8.0008 0 0 0 0 15.523438l40.1425781 10.035156 10.035156 40.142575a8.0008 8.0008 0 0 0 15.523438 0l10.035156-40.142575 40.142575-10.035156a8.0008 8.0008 0 0 0 0-15.523438l-40.142575-10.035156-10.035156-40.1425781a8.0008 8.0008 0 0 0 -7.558594-6.05468752z" fill="url(#a)"/><path d="m64.000002 120-11.200002-44.8-44.8-11.199998 44.8-11.200002 11.199998-44.8 11.200002 44.8 44.8 11.199998-44.8 11.200002z" fill="url(#b)"/></g></svg>

<?xml version="1.0" encoding="UTF-8" standalone="no"?>
<!-- Created with Inkscape (http://www.inkscape.org/) -->

<svg
   xmlns:dc="http://purl.org/dc/elements/1.1/"
   xmlns:cc="http://creativecommons.org/ns#"
   xmlns:rdf="http://www.w3.org/1999/02/22-rdf-syntax-ns#"
   xmlns:svg="http://www.w3.org/2000/svg"
   xmlns="http://www.w3.org/2000/svg"
   xmlns:xlink="http://www.w3.org/1999/xlink"
   xmlns:sodipodi="http://sodipodi.sourceforge.net/DTD/sodipodi-0.dtd"
   xmlns:inkscape="http://www.inkscape.org/namespaces/inkscape"
   version="1.1"
   id="svg2"
   width="128"
   height="128"
   viewBox="0 0 128 128"
   sodipodi:docname="sc_starshapes.star4.svg"
   inkscape:export-filename="/home/rizmut/Dokumen/Rizmut/Github/libreoffice-style-karasa-jaga/build/images_karasa_jaga/cmd/sc_starshapes.star4.png"
   inkscape:export-xdpi="12"
   inkscape:export-ydpi="12"
   inkscape:version="0.92.3 (unknown)">
  <metadata
     id="metadata8">
    <rdf:RDF>
      <cc:Work
         rdf:about="">
        <dc:format>image/svg+xml</dc:format>
        <dc:type
           rdf:resource="http://purl.org/dc/dcmitype/StillImage" />
        <dc:title></dc:title>
      </cc:Work>
    </rdf:RDF>
  </metadata>
  <defs
     id="defs6">
    <linearGradient
       id="linearGradient3369">
      <stop
         id="stop3372"
         offset="0"
         style="stop-color:#ffffff;stop-opacity:1;" />
      <stop
         style="stop-color:#ffffff;stop-opacity:1;"
         offset="0.59375"
         id="stop3374" />
      <stop
         style="stop-color:#f1f1f1;stop-opacity:1;"
         offset="0.84375"
         id="stop3376" />
      <stop
         id="stop3378"
         offset="0.90625"
         style="stop-color:#eaeaea;stop-opacity:1;" />
      <stop
         id="stop3384"
         offset="1"
         style="stop-color:#dfdfdf;stop-opacity:1;" />
    </linearGradient>
    <linearGradient
       id="linearGradient7422">
      <stop
         style="stop-color:#7c9fcf;stop-opacity:1"
         offset="0"
         id="stop7424" />
      <stop
         id="stop5348"
         offset="0.5"
         style="stop-color:#7c9ece;stop-opacity:1" />
      <stop
         id="stop7426"
         offset="1"
         style="stop-color:#7b9dcf;stop-opacity:1" />
    </linearGradient>
    <linearGradient
       inkscape:collect="always"
       xlink:href="#linearGradient7422"
       id="linearGradient3509"
       x1="0.0010142192"
       y1="64.001122"
       x2="127.99898"
       y2="64.001122"
       gradientUnits="userSpaceOnUse" />
    <linearGradient
       inkscape:collect="always"
       xlink:href="#linearGradient3369"
       id="linearGradient3517"
       x1="64"
       y1="128"
       x2="64"
       y2="0"
       gradientUnits="userSpaceOnUse" />
  </defs>
  <sodipodi:namedview
     pagecolor="#ffffff"
     bordercolor="#666666"
     borderopacity="1"
     objecttolerance="10"
     gridtolerance="10"
     guidetolerance="10"
     inkscape:pageopacity="0"
     inkscape:pageshadow="2"
     inkscape:window-width="1366"
     inkscape:window-height="706"
     id="namedview4"
     showgrid="true"
     inkscape:snap-page="true"
     inkscape:snap-global="true"
     inkscape:zoom="2.0000001"
     inkscape:cx="9.4994882"
     inkscape:cy="53.992062"
     inkscape:window-x="0"
     inkscape:window-y="0"
     inkscape:window-maximized="1"
     inkscape:current-layer="svg2"
     inkscape:snap-smooth-nodes="true">
    <inkscape:grid
       type="xygrid"
       id="grid27"
       spacingx="8"
       spacingy="8"
       empspacing="2" />
  </sodipodi:namedview>
  <g
     id="g3540">
    <path
       d="M 64.203125,0.00585938 A 8.0008,8.0008 0 0 0 56.238281,6.0605469 L 46.203125,46.203125 6.0605469,56.238281 a 8.0008,8.0008 0 0 0 0,15.523438 L 46.203125,81.796875 56.238281,121.93945 a 8.0008,8.0008 0 0 0 15.523438,0 L 81.796875,81.796875 121.93945,71.761719 a 8.0008,8.0008 0 0 0 0,-15.523438 L 81.796875,46.203125 71.761719,6.0605469 A 8.0008,8.0008 0 0 0 64.203125,0.00585938 Z"
       id="path3499"
       style="opacity:1;fill:url(#linearGradient3509);fill-opacity:1.0;stroke:none;stroke-width:7.27569294;stroke-linecap:round;stroke-linejoin:round;stroke-miterlimit:4;stroke-dasharray:none;stroke-dashoffset:0;stroke-opacity:1"
       inkscape:original="M 64 8 L 52.800781 52.800781 L 8 64 L 52.800781 75.199219 L 64 120 L 75.199219 75.199219 L 120 64 L 75.199219 52.800781 L 64 8 z "
       inkscape:radius="8"
       sodipodi:type="inkscape:offset" />
    <path
       d="M 64.000002,120 52.8,75.2 8,64.000002 52.8,52.8 63.999998,8 75.2,52.8 120,63.999998 75.2,75.2 Z"
       inkscape:randomized="0"
       inkscape:rounded="0"
       inkscape:flatsided="false"
       sodipodi:arg2="2.3561945"
       sodipodi:arg1="1.5707963"
       sodipodi:r2="15.839192"
       sodipodi:r1="56"
       sodipodi:cy="64"
       sodipodi:cx="64"
       sodipodi:sides="4"
       id="path1464"
       style="opacity:1;fill:url(#linearGradient3517);fill-opacity:1;stroke:none;stroke-width:7.27569294;stroke-linecap:round;stroke-linejoin:round;stroke-miterlimit:4;stroke-dasharray:none;stroke-dashoffset:0;stroke-opacity:1"
       sodipodi:type="star" />
  </g>
</svg>
